X:1
T:Friedrich Silcher
T:Thüringer Volkslied
T:Etwas langsam
T:Treue Liebe
T:Copyright © 2016 by the Choral Public Domain Library (http://www.cpdl.org)
Z:Copyright © 2016 by the Choral Public Domain Library (http://www.cpdl.org)
%%score { 1 | ( 2 3 ) }
L:1/8
Q:1/4=120
M:2/4
K:Bb
V:1 treble nm="Part_1"
V:2 bass 
V:3 bass 
V:1
!p! [Fd]2"^Instrument change" [FB][EG] |"^Instrument change" [DF]>"^Instrument change"[DB] [DB]2 | %2
w: Ach, wie ist's|mög- lich dann,|
w: Blau blüht ein|Blü- me- lein,|
w: Wär' ich ein|Vö- ge- lein,|
"^Instrument change" [Ec]2"^Instrument change" [EB][Ec] | %3
w: dass ich dich|
w: dass heisst Ver-|
w: bald wollt' ich|
"^Instrument change" [Dd]"^Instrument change"[EG] [DF]2 | %4
w: las- sen kann;|
w: giss nicht mein:|
w: bei dir sein,|
"^Instrument change" [DF]2 [CE][DF]"^Instrument change" | %5
w: hab' dich von|
w: dies Blüm- lein|
w: scheut' Falk' und|
"^Instrument change" [EG]"^Instrument change"[Fe] [Fd]2 | %6
w: Her- zen lieb,|
w: leg' ans Herz|
w: Ha- bicht nicht,|
"^Instrument change" [Fc]2"^Instrument change" [=Ed][Ec] | %7
w: das glau- be|
w: und den- ke|
w: flög' schnell zu|
"^Instrument change" F2 z2"^Instrument change" | %8
w: mir!|
w: mein!|
w: dir!|
"^Instrument change" [!courtesy!_Ec]2"^Instrument change" [Ed][Ec] | %9
w: Du hast die|
w: Stirbt Blum' und|
w: Schöss' mich ein|
"^Instrument change" [DB]"^Instrument change"[EG] [DF]2 | %10
w: See- le mein|
w: Hoff- nung gleich,|
w: Jä- ger tot,|
"^Instrument change" [Fd]2"^Instrument change" [Fe][Fd] | %11
w: so ganz ge-|
w: wir sind an|
w: fiel ich in|
"^Instrument change" [EG]"^Instrument change"[FGd] [EGc]2 | %12
w: nom- men ein,|
w: Lie- be reich,|
w: dei- nen Schoss:|
"^Instrument change" [EF]2"^Instrument change" [EG][EF] | %13
w: dass ich kein|
w: denn sie stirbt|
w: sähst du mich|
"^Instrument change" [DF]"^Instrument change"[Ee] [Fd]2 | %14
w: an- dre lieb',|
w: nie bei mir,|
w: trau- rig an,|
"^Instrument change" [=Ec]2"^Instrument change" [_EG][EA] | %15
w: als dich al-|
w: das glau- be|
w: gern stürb ich|
"^Instrument change" [DFB]3"^Instrument change" z |] %16
w: lein!|
w: mir!|
w: dann.|
V:2
 !>![B,,B,]2 [D,B,][E,B,] | B,3/2[B,,F,] x3/2 | [F,A,]2 [F,G,][F,A,] | [B,,F,B,][E,B,] [B,,B,]2 | %4
 (B,,B,)[G,B,][F,B,] | [E,B,][C,A,] [B,,B,]2 | !>![C,A,]2 [C,G,][C,B,] | ([F,A,]CA,F,) | %8
 [F,A,]2 [F,G,][F,A,] | [B,,F,B,][E,B,](B,!courtesy!_A,) | [G,=B,]2 [G,A,][G,B,] | C=B,(C_B,) | %12
 [A,C]2 [G,B,][A,C] | B,[G,B,] [F,B,]2 | !>![G,B,]2 [F,B,][F,C] | [B,,B,]3 z |] %16
V:3
 x4 | x2 [B,,F,]2 | x4 | x4 | x4 | x4 | x4 | x4 | x4 | x4 | x4 | x4 | x4 | x4 | x4 | x4 |] %16

